X:1
T:Title
%%score { ( 1 3 ) | 2 }
L:1/8
M:3/4
K:F
V:1 treble nm="Grand Piano"
V:3 treble 
V:2 bass 
V:1
 z2 z[Q:1/4=94] A GF | C3 G FD | E3 [DEB] [CFA]G | E3 D C[Ed] |[M:3/8] c3 | AGF |[M:3/4] C3 A GF | %7
 [DFB]3 [Fd] [Dc][DFB] | [CFA][Fc] [Ec]2 [B,CE]2 |[M:2/4] [A,CF]4 |[M:4/4] z _EDD [Fd][Fd]d-[Fd] | %11
 .F2 c4 z c- | c2 c2 z4 | z2 z F- F4 | .F2 D2 .D2 .F2 | z2 c4 z c- | c2 z2 z4 | %17
[M:5/8] [FA][EG] [CF]3- | [CF] z z z2 |] %19
V:2
 z2 z [F,CF] [F,B,C][F,A,C] | [F,A,]3 [F,A,C] [F,A,C][F,A,C] | [G,B,C]3 C, C,[C,B,C] | %3
 [C,B,C]3 [C,B,C] [C,B,][C,B,] |[M:3/8] [F,A,F]3 | [F,CF][F,B,C][F,A,C] | %6
[M:3/4] [F,A,]3 [F,CF] [F,CE][F,C_E] | B,,3 [B,,B,] [B,,B,]B,, | C,[C,A,] [C,G,]2 C,2 | %9
[M:2/4] F,,4 |[M:4/4] [F,A,C][F,A,][B,,B,][B,,B,] [B,,B,][B,,B,][B,,B,][B,,B,] | %11
 [B,,B,][B,,B,][F,A,F][F,A,] [F,A,][F,DF][F,CF][F,A,F] | [F,A,][F,A,][C,G,]C, C,C,C,C, | %13
 C,C,[F,A,][F,A,] [F,C][F,B,] [F,A,]2 | [A,,F,]2 [B,,F,B,][B,,F,] [B,,B,][B,,B,][B,,B,][B,,B,] | %15
 [B,,B,][B,,B,][F,A,F][F,A,] [F,A,][F,DF][F,CF][F,A,F] | %16
 [F,A,][F,A,][C,G,][C,G,] [C,C][C,C][C,C][C,C] |[M:5/8] [C,C][C,B,] [F,A,]3- | [F,A,] z z z2 |] %19
V:3
 x6 | x6 | x6 | x6 |[M:3/8] x3 | x3 |[M:3/4] x6 | x6 | x6 |[M:2/4] x4 |[M:4/4] F2 F2 z2 .F2 | %11
 d-[Fd] z F FB .A2 | FFE[G,E] [CEG][CFA][DEB][DEB] | [CEA][B,EG] .F2 ED C2 | %14
 C-[CE] z B, F-[DF]B-[FB] | [Fd][Fd] z F FB .A2 | FF[Ec][Ec] [EG][FA][GB][GB] |[M:5/8] x5 | x5 |] %19

